icons/breezeLight/actions/22/profile-path.svg

<svg viewBox="0 0 22 22" xmlns="http://www.w3.org/2000/svg"><path d="m7 9h12v10h-12z" fill="#4d4d4d" fill-opacity=".501961"/><path d="m14.054688 6a2.5 2.5 0 0 1 -.054688-.5 2.5 2.5 0 0 1 .050781-.5h-11.050781v14h1v-13z" fill="#da4453"/><path d="m6 8v11h1v-10h12v-1z" fill="#4d4d4d"/><path d="m16.5 3a2.5 2.5 0 0 0 -2.5 2.5 2.5 2.5 0 0 0 2.5 2.5 2.5 2.5 0 0 0 2.5-2.5 2.5 2.5 0 0 0 -2.5-2.5zm0 1a1.5 1.5 0 0 1 1.5 1.5 1.5 1.5 0 0 1 -1.5 1.5 1.5 1.5 0 0 1 -1.5-1.5 1.5 1.5 0 0 1 1.5-1.5z" fill="#3daee9"/></svg>

<?xml version="1.0" encoding="UTF-8" standalone="no"?>
<svg
   xmlns:dc="http://purl.org/dc/elements/1.1/"
   xmlns:cc="http://creativecommons.org/ns#"
   xmlns:rdf="http://www.w3.org/1999/02/22-rdf-syntax-ns#"
   xmlns:svg="http://www.w3.org/2000/svg"
   xmlns="http://www.w3.org/2000/svg"
   xmlns:sodipodi="http://sodipodi.sourceforge.net/DTD/sodipodi-0.dtd"
   xmlns:inkscape="http://www.inkscape.org/namespaces/inkscape"
   viewBox="0 0 22 22"
   version="1.1"
   id="svg8"
   sodipodi:docname="object-to-path.svg"
   inkscape:version="0.92.4 (5da689c313, 2019-01-14)">
  <metadata
     id="metadata12">
    <rdf:RDF>
      <cc:Work
         rdf:about="">
        <dc:format>image/svg+xml</dc:format>
        <dc:type
           rdf:resource="http://purl.org/dc/dcmitype/StillImage" />
        <dc:title></dc:title>
      </cc:Work>
    </rdf:RDF>
  </metadata>
  <sodipodi:namedview
     pagecolor="#ffffff"
     bordercolor="#666666"
     borderopacity="1"
     objecttolerance="10"
     gridtolerance="10"
     guidetolerance="10"
     inkscape:pageopacity="0"
     inkscape:pageshadow="2"
     inkscape:window-width="1510"
     inkscape:window-height="1121"
     id="namedview10"
     showgrid="true"
     inkscape:zoom="30.341309"
     inkscape:cx="13.56705"
     inkscape:cy="9.8820252"
     inkscape:window-x="1887"
     inkscape:window-y="634"
     inkscape:window-maximized="0"
     inkscape:current-layer="svg8">
    <inkscape:grid
       type="xygrid"
       id="grid822"
       empspacing="11" />
  </sodipodi:namedview>
  <defs
     id="defs3051">
    <style
       type="text/css"
       id="current-color-scheme">
      .ColorScheme-Text {
        color:#4d4d4d;
      }
      .ColorScheme-Highlight {
        color:#3daee9;
      }
      </style>
  </defs>
  <rect
     style="fill:#4d4d4d;fill-opacity:0.50196081;stroke:none;stroke-opacity:1"
     id="rect838"
     width="12"
     height="10"
     x="7"
     y="9" />
  <path
     style="fill:#da4453;fill-opacity:1;stroke:none;stroke-opacity:1"
     d="M 14.054688,6 A 2.5,2.5 0 0 1 14,5.5 2.5,2.5 0 0 1 14.050781,5 H 3 V 19 H 4 V 6 Z"
     id="path824" />
  <path
     style="fill:#4d4d4d;fill-opacity:1;stroke:none;stroke-opacity:1"
     d="M 6 8 L 6 19 L 7 19 L 7 9 L 19 9 L 19 8 L 6 8 z "
     id="rect831" />
  <path
     style="fill:#3daee9;fill-opacity:1;stroke:none;stroke-opacity:1"
     d="M 16.5 3 A 2.5 2.5 0 0 0 14 5.5 A 2.5 2.5 0 0 0 16.5 8 A 2.5 2.5 0 0 0 19 5.5 A 2.5 2.5 0 0 0 16.5 3 z M 16.5 4 A 1.5 1.5 0 0 1 18 5.5 A 1.5 1.5 0 0 1 16.5 7 A 1.5 1.5 0 0 1 15 5.5 A 1.5 1.5 0 0 1 16.5 4 z "
     id="path870" />
</svg>
